X: 15633
T: God Rest Ye Merry
R: jig
M: 6/8
K: Bminor
A|B2 f f2 e|d2 c B2 A|B2 c d2 B|F3 F2 F|
B2 f- f2 e|d2 c B3|B2 c d2 e|f3- f2||
f|g2 e f2 g|a2 g f2 e|d2 B c2 d|e3 d2 e|
f2 g a2 b|f2 e d2 c|B2 e d2 c|B3- B2||

